X: 5344
T: Buachaill ón Éirne
R: waltz
M: 3/4
K: Gmajor
B3 A B2|A2 G2 E2|D3 D D2|E2 G2 A2|G6-|G4 D2|G3 A B2|
c2 B2 A2|d3 d d2|B2 G2 B2|A6-|A4 d2|d3 B A2|
G2 A2 B2|c3 d e2|d2 B2 G2|A6-|A4 GA|B3 A B2|
A2 G2 E2|D3 D D2|E2 G2 A2|1 G6-|G4 GA:|2 G6-|G6||

